X: 02051
T: The Perth Hunt
C:Magdalina Stirling of Ardoch
R:reel
B:RSCDS 2-5
N:Composed and published by Miss Magdalina Stirling of Ardoch about 1788.
Z:1997 by John Chambers <jc:trillian.mit.edu>
M:C|
L:1/8
K:D
|: "D"{B}A2FA DAFA | DAFA "Em"BEE2 | "D"{B}A2FA DAFA | "A7"faeg "D"fdd2 :|
|| "D"{g}fdad "G"bd"D"ad | fdad "Em"ge"A7"eg | "D"fdad "G"bd"D"ad | "A7"ABde "D"fdd2 ||
|| "D"(3{g}fed ad "G"bd"D"ad | (3fed ad "Em"be"A7"eg | "D"fadf "Em"gbeg | "A7"ABde "D"fdd2 |]
%%center Book02/02051-Perth_Hunt-1.abc

%%sep 1 1 500
%%sep 1 1 500

